src/images/icon-trash.svg

<svg width="18" height="19" viewBox="0 0 18 19" xmlns="http://www.w3.org/2000/svg"><path d="M6 1.5v1H2v2h1v12c0 .553.448 1 1 1h10c.552 0 1-.447 1-1v-12h1v-2h-4v-1H6Z" fill="#B6BCBF"/><path d="M5 6.5h2v8H5v-8Z" fill="#fff"/><path d="M8 6.5h2v8H8v-8Z" fill="#fff"/><path d="M11 6.5h2v8h-2v-8Z" fill="#fff"/></svg>

<svg width="18" height="19" viewBox="0 0 18 19" fill="none" xmlns="http://www.w3.org/2000/svg">
  <path d="M6 1.5V2.5H2V4.5H3V16.5C3 17.0523 3.44772 17.5 4 17.5H14C14.5523 17.5 15 17.0523 15 16.5V4.5H16V2.5H12V1.5H6Z" fill="#B6BCBF"/>
  <path d="M5 6.5H7V14.5H5V6.5Z" fill="white"/>
  <path d="M8 6.5H10V14.5H8V6.5Z" fill="white"/>
  <path d="M11 6.5H13V14.5H11V6.5Z" fill="white"/>
</svg>
